X:30
T:Saint Anne's Reel
Z:Jack Campin, 2006, http://www.campin.me.uk/
M:C|
L:1/8
Q:1/2=108
K:D
de |fedc edcB|A2FA DAFA|B2GB DBGB|A2FA  DA
FA |fedc edcB|A2FA DAFA|B2ed cABc|eddc  d2:|
de |f2fg fdef|gagf g2gf|edcB Aceg|baa^g a2
a=g|f2fg fdef|gagf g2gf|edcB Aceg|fddc  d2:|
